static/logos/basecamp-wordmark-color.svg

<svg width="100" height="28" viewBox="0 0 100 28" fill="none" xmlns="http://www.w3.org/2000/svg">
<g clip-path="url(#clip0_1_3432)">
<path d="M25.27 17.1333C24.67 17.1333 24.2034 16.6667 24.1367 16.0667C23.7367 10.3333 20.6033 2.26667 14.8034 2.26667C10.0034 2.26667 6.40335 5.6 4.07002 12.2C3.87002 12.8 3.20335 13.1333 2.60335 12.8667C2.00335 12.6667 1.67002 12 1.93668 11.4667C4.60335 3.86667 8.93668 0 14.8034 0C22.47 0 26.0033 9.73333 26.4033 15.9333C26.47 16.5333 26.0034 17.1333 25.3367 17.1333H25.27Z" fill="#1D2D35"/>
<path opacity="0.4" d="M27.9333 19.3332L7.93333 27.5998L0 8.39983L3.6 6.93316L20.0667 0.199829L27.9333 19.3332Z" fill="#FFE000"/>
<path d="M27.0016 21.5332L5.80156 25.9332L1.60156 5.59983L5.1349 4.8665L22.8016 1.19983L27.0016 21.5332Z" fill="#FFE000"/>
<path d="M14.5311 21.3333C10.6644 21.3333 6.93106 19.6667 4.33105 16.7333C3.99772 16.4667 3.93105 16 4.06438 15.6C4.79772 13.6667 6.73106 9.2 9.19772 9.13333C10.4644 9.13333 11.3977 10.1333 12.1311 10.9333C12.3311 11.2 12.6644 11.5333 12.9311 11.7333C13.5311 11.1333 14.6644 9.26667 15.5311 7.33333C15.7977 6.73333 16.4644 6.53333 17.0644 6.8C17.6644 7.06667 17.8644 7.73333 17.5977 8.33333C14.9311 14.1333 13.5311 14.1333 12.9977 14.1333C11.9311 14.1333 11.1977 13.3333 10.4644 12.5333C10.1311 12.2 9.46439 11.4667 9.19772 11.4667C8.59772 11.5333 7.33106 13.6 6.46438 15.8C8.66439 18 11.6644 19.2 14.7311 19.1333C17.3977 19.1333 22.1311 18.6667 24.0644 15.8C23.5311 10.0667 20.3977 2.33333 14.7311 2.33333C14.1311 2.33333 13.5977 1.8 13.5977 1.2C13.5977 0.6 14.1311 0 14.7977 0C22.4644 0 25.9977 9.73333 26.3977 15.9333C26.3977 16.1333 26.3311 16.4 26.2644 16.6C24.4644 19.6667 20.3977 21.4 14.7977 21.4C14.7311 21.3333 14.5977 21.3333 14.5311 21.3333Z" fill="#1D2D35"/>
<path d="M31.2031 5.66663H35.2699C37.5365 5.66663 38.7365 6.59996 38.7365 8.33329V8.39996C38.8031 9.46663 38.0698 10.4 37.0698 10.6C38.3365 10.7333 39.2032 11.8 39.1365 13.0666V13.1333C39.1365 15.0666 37.8699 16.0666 35.4699 16.0666H31.2031V5.66663ZM34.8698 9.93329C36.0031 9.93329 36.4699 9.53329 36.4699 8.59996V8.53329C36.4699 7.66663 36.0031 7.26663 34.8698 7.26663H33.4699V9.93329H34.8698ZM35.1365 14.4C36.2699 14.4 36.8032 13.8666 36.8032 12.9333V12.8666C36.8032 11.9333 36.2698 11.4 35.0031 11.4H33.5365V14.4H35.1365Z" fill="#1D2D35"/>
<path d="M39.7344 13.9333C39.7344 12.1999 41.3344 11.5333 43.6677 11.5333H44.5344V11.1999C44.5344 10.2666 44.2677 9.79993 43.3344 9.79993C42.7344 9.73327 42.1344 10.1333 42.0677 10.7999V10.8666H40.0677C40.201 9.0666 41.601 8.2666 43.4677 8.2666C45.3344 8.2666 46.6677 8.99993 46.6677 11.0666V15.9999H44.601V15.1333C44.0677 15.8666 43.201 16.2666 42.3344 16.1999C40.8677 16.1999 39.7344 15.5333 39.7344 13.9333ZM44.5344 13.3999V12.7333H43.7344C42.5344 12.7333 41.801 12.9999 41.801 13.7999C41.801 14.3333 42.1344 14.7333 42.9344 14.7333C43.801 14.7333 44.5344 14.1999 44.5344 13.3999Z" fill="#1D2D35"/>
<path d="M47.4688 13.6666H49.4021C49.4688 14.3333 49.8021 14.7333 50.7354 14.7333C51.6688 14.7333 51.9354 14.3999 51.9354 13.9333C51.9354 13.4666 51.4688 13.1999 50.4021 12.9999C48.4021 12.6666 47.6021 12.1333 47.6021 10.5999C47.6021 9.0666 49.0021 8.2666 50.6021 8.2666C52.2688 8.2666 53.5354 8.8666 53.7354 10.5999H51.8021C51.6687 9.99993 51.3354 9.6666 50.6021 9.6666C49.8688 9.6666 49.5354 9.99993 49.5354 10.4666C49.5354 10.9333 49.8688 11.1333 51.0021 11.2666C52.8688 11.5333 53.9354 11.9999 53.9354 13.6666C53.9354 15.3333 52.7354 16.1999 50.7354 16.1999C48.7354 16.1999 47.5354 15.2666 47.4688 13.6666Z" fill="#1D2D35"/>
<path d="M54.5312 12.3333V12.1999C54.3979 10.1333 55.9979 8.33327 58.1312 8.2666H58.4645C60.3979 8.2666 62.1979 9.39993 62.1979 12.1333V12.7333H56.6645C56.7312 13.9999 57.3979 14.7333 58.5312 14.7333C59.5312 14.7333 59.9979 14.3333 60.1312 13.6666H62.1312C61.8645 15.3333 60.5979 16.1999 58.5312 16.1999C56.1979 16.1999 54.5312 14.7333 54.5312 12.3333ZM60.0645 11.3999C59.9979 10.2666 59.3979 9.6666 58.3979 9.6666C57.4645 9.6666 56.6645 10.3999 56.6645 11.3999H60.0645Z" fill="#1D2D35"/>
<path d="M62.6661 12.3333V12.1999C62.5994 10.1333 64.1994 8.33327 66.2661 8.2666H66.5994C68.3327 8.2666 69.9993 8.99993 70.1327 11.1999H68.1327C68.066 10.4666 67.3993 9.8666 66.666 9.93327C65.5994 9.93327 64.8661 10.7333 64.8661 12.1999V12.3333C64.8661 13.8666 65.5327 14.6666 66.7327 14.6666C67.5993 14.7333 68.3327 14.0666 68.3327 13.1999H70.1993C70.066 14.9999 68.7993 16.2666 66.5994 16.2666C64.3994 16.2666 62.6661 14.7999 62.6661 12.3333Z" fill="#1D2D35"/>
<path d="M70.7344 13.9334C70.7344 12.2 72.3344 11.5334 74.6677 11.5334H75.5344V11.2C75.5344 10.2667 75.2677 9.80004 74.3344 9.80004C73.7344 9.73337 73.1344 10.1334 73.0677 10.8V10.9334H71.0677C71.201 9.13337 72.601 8.33337 74.4677 8.33337C76.3344 8.33337 77.6677 9.06671 77.6677 11.1334V16H75.601V15.1334C75.0677 15.8667 74.201 16.2667 73.3344 16.2C71.8677 16.2 70.7344 15.5334 70.7344 13.9334ZM75.4677 13.4V12.7334H74.6677C73.4677 12.7334 72.7344 13 72.7344 13.8C72.7344 14.3334 73.0677 14.7334 73.8677 14.7334C74.801 14.7334 75.4677 14.2 75.4677 13.4Z" fill="#1D2D35"/>
<path d="M79 8.46671H81.1333V9.60004C81.6 8.73338 82.4667 8.26671 83.4667 8.26671C84.4 8.20004 85.2667 8.73338 85.6 9.60004C86.2 8.73338 87.1333 8.26671 88.1333 8.26671C89.5333 8.26671 90.6667 9.13338 90.6667 11.2V16H88.6V11.4C88.6 10.4 88.2 10 87.4 10C86.6 9.93338 85.9333 10.6 85.9333 11.3334V11.5334V16H83.8667V11.4C83.8667 10.4 83.4 10 82.6667 10C81.8667 9.93338 81.2667 10.6 81.2 11.3334V11.5334V16H79.0667L79 8.46671Z" fill="#1D2D35"/>
<path d="M92.0703 8.46671H94.137V9.66671C94.6703 8.80004 95.6036 8.33337 96.537 8.33337C98.4036 8.33337 99.8703 9.73337 99.8703 12.2V12.3334C99.8703 14.8667 98.4703 16.2667 96.537 16.2667C95.537 16.3334 94.6036 15.8 94.137 14.9334V18.6667H92.0703V8.46671ZM97.737 12.2667V12.1334C97.737 10.6 97.0036 9.86671 95.937 9.86671C94.8703 9.86671 94.0703 10.6 94.0703 12.1334V12.2667C94.0703 13.8 94.8036 14.5334 95.937 14.5334C97.0703 14.5334 97.737 13.7334 97.737 12.2667Z" fill="#1D2D35"/>
</g>
<defs>
<clipPath id="clip0_1_3432">
<rect width="100" height="28" fill="white"/>
</clipPath>
</defs>
</svg>

<svg xmlns="http://www.w3.org/2000/svg" width="228.571" height="64" fill="none" viewBox="0 0 100 28"><g clip-path="url(#a)"><path fill="#1D2D35" d="M25.27 17.133c-.6 0-1.067-.466-1.133-1.066-.4-5.734-3.534-13.8-9.334-13.8-4.8 0-8.4 3.333-10.733 9.933-.2.6-.867.933-1.467.667-.6-.2-.933-.867-.666-1.4C4.603 3.867 8.937 0 14.803 0c7.667 0 11.2 9.733 11.6 15.933.067.6-.4 1.2-1.066 1.2h-.067Z"/><path fill="#FFE000" d="m27.933 19.333-20 8.267L0 8.4l3.6-1.467L20.067.2l7.866 19.133Z" opacity=".4"/><path fill="#FFE000" d="m27.002 21.533-21.2 4.4L1.602 5.6l3.533-.733L22.802 1.2l4.2 20.333Z"/><path fill="#1D2D35" d="M14.531 21.333c-3.867 0-7.6-1.666-10.2-4.6-.333-.266-.4-.733-.267-1.133.734-1.933 2.667-6.4 5.134-6.467 1.266 0 2.2 1 2.933 1.8.2.267.533.6.8.8.6-.6 1.733-2.466 2.6-4.4.267-.6.933-.8 1.533-.533.6.267.8.933.534 1.533-2.667 5.8-4.067 5.8-4.6 5.8-1.067 0-1.8-.8-2.534-1.6-.333-.333-1-1.066-1.266-1.066-.6.066-1.867 2.133-2.734 4.333 2.2 2.2 5.2 3.4 8.267 3.333 2.667 0 7.4-.466 9.333-3.333-.533-5.733-3.666-13.467-9.333-13.467-.6 0-1.133-.533-1.133-1.133s.533-1.2 1.2-1.2c7.666 0 11.2 9.733 11.6 15.933 0 .2-.067.467-.134.667-1.8 3.067-5.866 4.8-11.466 4.8-.067-.067-.2-.067-.267-.067ZM31.203 5.667h4.067c2.266 0 3.466.933 3.466 2.666V8.4c.067 1.067-.666 2-1.666 2.2 1.267.133 2.133 1.2 2.066 2.467v.066c0 1.934-1.266 2.934-3.666 2.934h-4.267v-10.4Zm3.667 4.266c1.133 0 1.6-.4 1.6-1.333v-.067c0-.866-.467-1.266-1.6-1.266h-1.4v2.666h1.4Zm.267 4.467c1.133 0 1.666-.533 1.666-1.467v-.066c0-.934-.533-1.467-1.8-1.467h-1.467v3h1.6ZM39.734 13.933c0-1.733 1.6-2.4 3.934-2.4h.866V11.2c0-.933-.266-1.4-1.2-1.4-.6-.067-1.2.333-1.266 1v.067h-2c.133-1.8 1.533-2.6 3.4-2.6 1.866 0 3.2.733 3.2 2.8V16H44.6v-.867a2.578 2.578 0 0 1-2.267 1.067c-1.466 0-2.6-.667-2.6-2.267Zm4.8-.533v-.667h-.8c-1.2 0-1.933.267-1.933 1.067 0 .533.333.933 1.133.933.867 0 1.6-.533 1.6-1.333ZM47.469 13.667h1.933c.067.666.4 1.066 1.333 1.066.934 0 1.2-.333 1.2-.8 0-.466-.466-.733-1.533-.933-2-.333-2.8-.867-2.8-2.4s1.4-2.333 3-2.333c1.667 0 2.933.6 3.133 2.333h-1.933c-.133-.6-.467-.933-1.2-.933-.733 0-1.067.333-1.067.8 0 .466.334.666 1.467.8 1.867.266 2.933.733 2.933 2.4 0 1.666-1.2 2.533-3.2 2.533s-3.2-.933-3.266-2.533ZM54.531 12.333V12.2a3.702 3.702 0 0 1 3.6-3.933h.334c1.933 0 3.733 1.133 3.733 3.866v.6h-5.534c.067 1.267.734 2 1.867 2 1 0 1.467-.4 1.6-1.066h2c-.267 1.666-1.533 2.533-3.6 2.533-2.333 0-4-1.467-4-3.867Zm5.534-.933c-.067-1.133-.667-1.733-1.667-1.733-.934 0-1.734.733-1.734 1.733h3.4ZM62.666 12.333V12.2c-.067-2.067 1.533-3.867 3.6-3.933h.333c1.734 0 3.4.733 3.534 2.933h-2c-.067-.733-.734-1.333-1.467-1.267-1.067 0-1.8.8-1.8 2.267v.133c0 1.534.667 2.334 1.867 2.334.866.066 1.6-.6 1.6-1.467h1.866c-.133 1.8-1.4 3.067-3.6 3.067s-3.933-1.467-3.933-3.934ZM70.734 13.933c0-1.733 1.6-2.4 3.934-2.4h.866V11.2c0-.933-.266-1.4-1.2-1.4-.6-.067-1.2.333-1.266 1v.133h-2c.133-1.8 1.533-2.6 3.4-2.6 1.866 0 3.2.734 3.2 2.8V16H75.6v-.867a2.578 2.578 0 0 1-2.267 1.067c-1.466 0-2.6-.667-2.6-2.267Zm4.734-.533v-.667h-.8c-1.2 0-1.934.267-1.934 1.067 0 .533.334.933 1.134.933.933 0 1.6-.533 1.6-1.333ZM79 8.467h2.133V9.6c.467-.867 1.334-1.333 2.334-1.333A2.11 2.11 0 0 1 85.6 9.6a3.044 3.044 0 0 1 2.533-1.333c1.4 0 2.534.866 2.534 2.933V16H88.6v-4.6c0-1-.4-1.4-1.2-1.4-.8-.067-1.467.6-1.467 1.333V16h-2.066v-4.6c0-1-.467-1.4-1.2-1.4-.8-.067-1.4.6-1.467 1.333V16h-2.133L79 8.467ZM92.07 8.467h2.067v1.2a2.817 2.817 0 0 1 2.4-1.334c1.867 0 3.333 1.4 3.333 3.867v.133c0 2.534-1.4 3.934-3.333 3.934a2.539 2.539 0 0 1-2.4-1.334v3.734H92.07v-10.2Zm5.667 3.8v-.134c0-1.533-.733-2.266-1.8-2.266-1.067 0-1.867.733-1.867 2.266v.134c0 1.533.734 2.266 1.867 2.266s1.8-.8 1.8-2.266Z"/></g><defs><clipPath id="a"><path fill="#fff" d="M0 0h100v28H0z"/></clipPath></defs></svg>
